X: 1072
M: 6/8
L: 1/8
K: D
d2d d2d | dcB AGF | E3 A3 | D3 Dz f |\
e2c B2e | ca^g fed | cfe dcB | A3- A2 :|
|: A |\
g3 gfe | f3- fed | e2d cBc | d3- dAf |
d3 zAf | d3 efg | aba efe | d3 zAf |\
d3 zAf | d3 efg | aba efe | d3- d2 H:|
|: [K:G] B/c/ |\
d3- def | g3 gc'b | a2g fef | (g3 d)Bc |\
d3- def | g3 gc'b | a2g fef | g3- "_da Capo"g3 :|

